X:1
T:Curfew, 11.10.11.10
T:Curfew, 11.10.11.10
T:Frederick Charles Maker, circa 1910
T:Public Domain Courtesy of the Cyber Hymnal™
C:Frederick Charles Maker, circa 1910
Z:Public Domain
Z:Courtesy of the Cyber Hymnal™
%%score ( 1 2 ) ( 3 4 )
L:1/8
M:3/4
K:Db
V:1 treble 
V:2 treble 
V:3 bass 
V:4 bass 
V:1
 [DF]2 [DF]2 [DF]2 | [DF]2 [CE]2 [DF]2 | [DG]2 [DG]2 [DG]2 | (G2 F2) [CE]2 | [DA]2 [DA]2 [=DB]2 | %5
 [Ec]2 [EA]2 [Ec]2 | [=Gd]2 [Gc]2 [GB]2 | (A2 [=GB]2 [_Gc]2) | [Fd]2 [Fd]2 [Fd]2 | %9
 [Ge]2 [Gd]2 [GB]2 | [DA]2 [EG]2 [DF]2 | [DF]2 ([CE]2 [B,D]2) | [B,=D]2 [B,D]2 [B,D]2 | %13
 [B,E]2 !fermata![Dc]2 [DB]2 | [DA]2 [CG]2 [CE]2 | D6 |] %16
V:2
 x6 | x6 | x6 | C4 x2 | x6 | x6 | x6 | A2 x4 | x6 | x6 | x6 | x6 | x6 | x6 | x6 | D6 |] %16
V:3
 [D,A,]2 [D,A,]2 [D,A,]2 | [D,A,]2 [G,A,]2 [F,A,]2 | [E,B,]2 [E,B,]2 [E,B,]2 | A,4 [G,A,]2 | %4
 [F,A,]2 [F,A,]2 [_F,A,]2 | [E,A,]2 [E,C]2 [E,A,]2 | [E,B,]2 [E,E]2 [E,D]2 | (C2 D2 E2) | %8
 [D,D]2 [D,A,]2 [D,A,]2 | [D,=A,]2 [D,B,]2 [E,C]2 | [F,D]2 [C,A,]2 [D,A,]2 | %11
 [A,,A,]2 ([=A,,G,]2 [B,,F,]2) | [A,,F,]2 [A,,F,]2 [A,,F,]2 | %13
 [G,,E,]2 !fermata![=G,,=E,]2 [G,,E,]2 | [A,,F,]2 [A,,E,]2 [A,,F,]2 | [D,F,]6 |] %16
V:4
 x6 | x6 | x6 | (A,,2 A,2) x2 | x6 | x6 | x6 | A,6 | x6 | x6 | x6 | x6 | x6 | x6 | x6 | x6 |] %16

